X:21
T:T014A- The Irish Lilt
S:From Oswald's Caledonian Pocket Companion, bk 10, c 1760
Q:1/4=120
L:1/8
M:6/8
K:D mixolydian
e2e e2e|efd cBc|d2d fed|cAc e3|e2e e2e|\
efd ~cBc|d2d f2a|gecd2::(f/2g/2)|a3 geg|\
fdf ecA|d2d fwd|cAc e2(f/2g/2)| (a2f) (g2e)|\
(f2d) cBc|d2d f2a|gec d2:|]

